media/ufo-plus.svg

<svg height="140" viewBox="0 0 160 140" width="160" xmlns="http://www.w3.org/2000/svg"><path d="m39.0268734 114.429248h.0007503l-11.6853216 11.475999v-.000751c-.3233627-.66098-.5034254-1.333964-.5034254-2.019703 0-.17181.0255089-.341369.0457659-.510178l6.9886851-6.864142h.0007503c1.5110265-.734506 3.2291251-1.432249 5.1527954-2.081225zm8.4492191-2.278619c1.2244266-.265592 2.4901176-.514679 3.797073-.749511l-19.234452 18.890082c-.6684829-.389386-1.2716931-.787775-1.8186337-1.194416l14.9512096-14.682616 2.3040528-2.263539zm11.0348449-1.83829c1.1238916-.139549 2.2650392-.269344 3.4279444-.387135l-23.5957216 23.172574c-.7622656-.267844-1.4975218-.543189-2.1937644-.825288l15.1755377-14.903193zm31.5373888-.998673-.8440441.829038-28.1145461 27.610371c-.9175698-.098284-1.8216348-.202571-2.7144459-.31436l11.4212296-11.216408 17.3512959-17.039937c.9753398.036763 1.943177.080278 2.9005106.131296zm-21.4374446.076976c1.0586189-.065272 2.1254906-.123043 3.2066173-.170309l-26.4009491 25.928284c-.8260378-.198069-1.6295678-.401389-2.4105899-.612963l13.6089919-13.364407zm11.3894935-.34512c.3856344 0 .7660169.006002 1.1501508.008253l-28.1205483 27.616373h-.0007502c-.8733043-.144051-1.7353547-.292602-2.5756475-.449407v-.00075l13.190346-12.954014 14.4665407-14.20695c.6279688-.006002 1.2559376-.013505 1.8899085-.013505zm26.6144739 1.995095-6.6345621 6.516771-21.5415059 21.154371c-1.0030995-.008253-1.9986964-.022508-2.9860404-.047267l7.4943613-7.360064 21.0388311-20.661449c.89131.126044 1.767616.25809 2.628916.397638zm-8.0762645-1.066046-4.2577335 4.181207-24.721864 24.27921c-.9595844-.053269-1.9116661-.11254-2.8517437-.180063l9.2409699-9.074412 19.825658-19.470784c.9340755.081028 1.853896.170309 2.7647133.264842zm15.7129505 2.564393-9.808918 9.633357-16.6918163 16.391711c-1.0353608.042015-2.0819755.074276-3.1353425.099785l3.6462705-3.580998 23.5169443-23.094547c.845545.175562 1.66633.360876 2.472862.550692zm7.101899 2.024356-11.837625 11.6253-11.9111499 11.697326c-1.0938811.107288-2.2057685.204071-3.3311607.291852l.1365476-.134297 24.661093-24.218439c.790025.238584 1.54929.484669 2.282295.738258zm6.344211 2.766589-12.464093 12.241265-7.011944 6.885899c-1.17866.207072-2.388082.40064-3.626013.581453l21.110106-20.731974h.00075c.709747.333116 1.374479.674485 1.991194 1.023357zm-11.645858 17.456782 15.156781-14.885937c.548441.550692.997097 1.112638 1.317459 1.686588l-12.16774 11.949414c-1.34972.438903-2.78497.857549-4.3065 1.249935zm-36.0514119-34.9128146c-1.1741591 0-2.1262408-.9520818-2.1262408-2.1262409v-22.4628269c0-1.1749094.9520817-2.1269911 2.1262408-2.1269911 1.1741592 0 2.1269912.9520817 2.1269912 2.1269911v22.4628269c0 1.1741591-.952832 2.1262409-2.1269912 2.1262409zm-48.1207921-1.8419668c-.1215423 0-.2445852-.0105037-.3691286-.0322613-1.1569031-.2018203-1.9304226-1.3047046-1.7271018-2.4616077l4.1309394-23.5409526c.2018203-1.1554025 1.297202-1.9289221 2.4616077-1.7271017 1.1569031.2025705 1.9304227 1.3054548 1.7271018 2.4616077l-4.1309394 23.5409525c-.180813 1.0323597-1.0788759 1.7593631-2.0924791 1.7593631zm96.353673.6462751c-1.013603 0-1.911666-.7277535-2.091729-1.759363l-4.040908-23.0270235c-.20332-1.1561528.570199-2.2597874 1.727102-2.4616077 1.162905-.2093229 2.259788.5694484 2.461608 1.7263515l4.040908 23.0270235c.203321 1.1569031-.570199 2.2597874-1.727102 2.462358-.124543.0210073-.248336.0322612-.369879.0322612zm-48.2328809-97.6781847c15.156031 0 28.3246189 8.31964888 35.3065519 20.6179341 26.472224 3.6410186 44.693073 11.2449181 44.693073 20.0387322 0 12.3327972-35.81673 22.3300306-79.9996249 22.3300306-44.1836452 0-80.0003751-9.9972334-80.0003751-22.3300306 0-8.7938141 18.2208488-16.3977136 44.6930727-20.0387322 6.9819328-12.29828522 20.1505212-20.6179341 35.3073024-20.6179341zm0 58.7334649c49.7310779 0 75.7463929-11.7686006 75.7463929-18.0767986 0-4.4595539-13.018536-11.643307-38.209314-15.4733915 1.568047 3.8053259 2.607159 7.8859978 2.953029 12.1692402.015756.2010701.016506.4051412.030761.6077118-1.395486 4.7694118-18.977862 8.5447273-40.5208689 8.5447273-21.5437566 0-39.126133-3.7753155-40.5216192-8.5447273.0142549-.2025706.0150052-.4066417.0307607-.6077118.3458705-4.2832424 1.3849826-8.3639143 2.9530289-12.1692402-25.1907774 3.8300845-38.20931351 11.0138376-38.20931351 15.4733915 0 6.308198 26.01531471 18.0767986 75.74714311 18.0767986zm0-41.1158263c-7.5648859 0-13.2121036 4.5863481-15.5634228 6.8783967-.783273.7652667-.8110326 1.7496097-.0787775 2.4706109 2.3025523 2.2657895 7.9917846 6.9556736 15.6422003 6.9556736 7.2572787 0 12.7499426-4.2209707 15.2603173-6.5887958.9783409-.9220713 1.03311-2.1374948.1538036-2.9807886-2.4345983-2.3355638-8.0052894-6.7350968-15.4141209-6.7350968zm0 12.797059c-2.5651438 0-4.6441182-2.0789744-4.6441182-4.6441182s2.0789744-4.6448684 4.6441182-4.6448684c2.5643936 0 4.643368 2.0797246 4.643368 4.6448684s-2.0789744 4.6441182-4.643368 4.6441182z" fill="#ffec00" fill-rule="evenodd"/></svg>

<?xml version="1.0" encoding="UTF-8"?>
<svg width="160px" height="140px" viewBox="0 0 160 140" version="1.1" xmlns="http://www.w3.org/2000/svg" xmlns:xlink="http://www.w3.org/1999/xlink">
    <!-- Generator: Sketch 50.2 (55047) - http://www.bohemiancoding.com/sketch -->
    <title>ufo-plus</title>
    <desc>Created with Sketch.</desc>
    <defs></defs>
    <g id="ufo-plus" stroke="none" stroke-width="1" fill="none" fill-rule="evenodd">
        <path d="M39.0268734,114.429248 L39.0276237,114.429248 L27.3423021,125.905247 L27.3423021,125.904496 C27.0189394,125.243516 26.8388767,124.570532 26.8388767,123.884793 C26.8388767,123.712983 26.8643856,123.543424 26.8846426,123.374615 L33.8733277,116.510473 L33.874078,116.510473 C35.3851045,115.775967 37.1032031,115.078224 39.0268734,114.429248 Z M47.4760925,112.150629 C48.7005191,111.885037 49.9662101,111.63595 51.2731655,111.401118 L32.0387135,130.2912 C31.3702306,129.901814 30.7670204,129.503425 30.2200798,129.096784 L45.1712894,114.414168 L47.4753422,112.150629 L47.4760925,112.150629 Z M58.5109374,110.312339 C59.634829,110.17279 60.7759766,110.042995 61.9388818,109.925204 L38.3431602,133.097778 C37.5808946,132.829934 36.8456384,132.554589 36.1493958,132.27249 L51.3249335,117.369297 L58.5109374,110.312339 Z M90.0483262,109.313666 L89.2042821,110.142704 L61.089736,137.753075 C60.1721662,137.654791 59.2681012,137.550504 58.3752901,137.438715 L69.7965197,126.222307 L87.1478156,109.18237 C88.1231554,109.219133 89.0909926,109.262648 90.0483262,109.313666 Z M68.6108816,109.390642 C69.6695005,109.32537 70.7363722,109.267599 71.8174989,109.220333 L45.4165498,135.148617 C44.590512,134.950548 43.786982,134.747228 43.0059599,134.535654 L56.6149518,121.171247 L68.6108816,109.390642 Z M80.0003751,109.045522 C80.3860095,109.045522 80.766392,109.051524 81.1505259,109.053775 L53.0299776,136.670148 L53.0292274,136.670148 C52.1559231,136.526097 51.2938727,136.377546 50.4535799,136.220741 L50.4535799,136.219991 L63.6439259,123.265977 L78.1104666,109.059027 C78.7384354,109.053025 79.3664042,109.045522 80.0003751,109.045522 Z M106.614849,111.040617 L99.9802869,117.557388 L78.438781,138.711759 C77.4356815,138.703506 76.4400846,138.689251 75.4527406,138.664492 L82.9471019,131.304428 L103.985933,110.642979 C104.877243,110.769023 105.753549,110.901069 106.614849,111.040617 Z M98.5385845,109.974571 L94.280851,114.155778 L69.558987,138.434988 C68.5994026,138.381719 67.6473209,138.322448 66.7072433,138.254925 L75.9482132,129.180513 L95.7738712,109.709729 C96.7079467,109.790757 97.6277672,109.880038 98.5385845,109.974571 Z M114.251535,112.538964 L104.442617,122.172321 L87.7508007,138.564032 C86.7154399,138.606047 85.6688252,138.638308 84.6154582,138.663817 L88.2617287,135.082819 L111.778673,111.988272 C112.624218,112.163834 113.445003,112.349148 114.251535,112.538964 Z M121.353434,114.56332 L109.515809,126.18862 L97.6046591,137.885946 C96.510778,137.993234 95.3988906,138.090017 94.2734984,138.177798 L94.410046,138.043501 L119.071139,113.825062 C119.861164,114.063646 120.620429,114.309731 121.353434,114.56332 Z M127.697645,117.329909 L115.233552,129.571174 L108.221608,136.457073 C107.042948,136.664145 105.833526,136.857713 104.595595,137.038526 L125.705701,116.306552 L125.706451,116.306552 C126.416198,116.639668 127.08093,116.981037 127.697645,117.329909 Z M116.051787,134.786691 L131.208568,119.900754 C131.757009,120.451446 132.205665,121.013392 132.526027,121.587342 L120.358287,133.536756 C119.008567,133.975659 117.573317,134.394305 116.051787,134.786691 Z M80.0003751,99.8738764 C78.826216,99.8738764 77.8741343,98.9217946 77.8741343,97.7476355 L77.8741343,75.2848086 C77.8741343,74.1098992 78.826216,73.1578175 80.0003751,73.1578175 C81.1745343,73.1578175 82.1273663,74.1098992 82.1273663,75.2848086 L82.1273663,97.7476355 C82.1273663,98.9217946 81.1745343,99.8738764 80.0003751,99.8738764 Z M31.879583,98.0319096 C31.7580407,98.0319096 31.6349978,98.0214059 31.5104544,97.9996483 C30.3535513,97.797828 29.5800318,96.6949437 29.7833526,95.5380406 L33.914292,71.997088 C34.1161123,70.8416855 35.211494,70.0681659 36.3758997,70.2699863 C37.5328028,70.4725568 38.3063224,71.5754411 38.1030015,72.731594 L33.9720621,96.2725465 C33.7912491,97.3049062 32.8931862,98.0319096 31.879583,98.0319096 Z M128.233256,98.6781847 C127.219653,98.6781847 126.32159,97.9504312 126.141527,96.9188217 L122.100619,73.8917982 C121.897299,72.7356454 122.670818,71.6320108 123.827721,71.4301905 C124.990626,71.2208676 126.087509,71.9996389 126.289329,73.156542 L130.330237,96.1835655 C130.533558,97.3404686 129.760038,98.4433529 128.603135,98.6459235 C128.478592,98.6669308 128.354799,98.6781847 128.233256,98.6781847 Z M80.0003751,1 C95.1564061,1 108.324994,9.31964888 115.306927,21.6179341 C141.779151,25.2589527 160,32.8628522 160,41.6566663 C160,53.9894635 124.18327,63.9866969 80.0003751,63.9866969 C35.8167299,63.9866969 0,53.9894635 0,41.6566663 C0,32.8628522 18.2208488,25.2589527 44.6930727,21.6179341 C51.6750055,9.31964888 64.8435939,1 80.0003751,1 Z M80.0003751,59.7334649 C129.731453,59.7334649 155.746768,47.9648643 155.746768,41.6566663 C155.746768,37.1971124 142.728232,30.0133593 117.537454,26.1832748 C119.105501,29.9886007 120.144613,34.0692726 120.490483,38.352515 C120.506239,38.5535851 120.506989,38.7576562 120.521244,38.9602268 C119.125758,43.7296386 101.543382,47.5049541 80.0003751,47.5049541 C58.4566185,47.5049541 40.8742421,43.7296386 39.4787559,38.9602268 C39.4930108,38.7576562 39.4937611,38.5535851 39.5095166,38.352515 C39.8553871,34.0692726 40.8944992,29.9886007 42.4625455,26.1832748 C17.2717681,30.0133593 4.25323199,37.1971124 4.25323199,41.6566663 C4.25323199,47.9648643 30.2685467,59.7334649 80.0003751,59.7334649 Z M80.0003751,18.6176386 C72.4354892,18.6176386 66.7882715,23.2039867 64.4369523,25.4960353 C63.6536793,26.261302 63.6259197,27.245645 64.3581748,27.9666462 C66.6607271,30.2324357 72.3499594,34.9223198 80.0003751,34.9223198 C87.2576538,34.9223198 92.7503177,30.7013491 95.2606924,28.333524 C96.2390333,27.4114527 96.2938024,26.1960292 95.414496,25.3527354 C92.9798977,23.0171716 87.4092066,18.6176386 80.0003751,18.6176386 Z M80.0003751,31.4146976 C77.4352313,31.4146976 75.3562569,29.3357232 75.3562569,26.7705794 C75.3562569,24.2054356 77.4352313,22.125711 80.0003751,22.125711 C82.5647687,22.125711 84.6437431,24.2054356 84.6437431,26.7705794 C84.6437431,29.3357232 82.5647687,31.4146976 80.0003751,31.4146976 Z" fill="#FFEC00"></path>
    </g>
</svg>
